resources/svg/cloud-off-line.svg

<svg fill="currentColor" viewBox="0 0 24 24" xmlns="http://www.w3.org/2000/svg"><path d="M3.51472 2.10051L22.6066 21.1924L21.1924 22.6066L19.1782 20.5924C18.503 20.8556 17.7684 21 17 21H7C3.68629 21 1 18.3137 1 15C1 12.3846 2.67346 10.16 5.00804 9.33857C5.0027 9.22639 5 9.11351 5 9C5 8.22228 5.12683 7.47418 5.36094 6.77527L2.10051 3.51472L3.51472 2.10051ZM7 9C7 9.08147 7.00193 9.16263 7.00578 9.24344L7.07662 10.7309L5.67183 11.2252C4.0844 11.7837 3 13.2889 3 15C3 17.2091 4.79086 19 7 19H17C17.1858 19 17.3687 18.9873 17.5478 18.9628L7.03043 8.44519C7.01032 8.62736 7 8.81247 7 9ZM12 2C15.866 2 19 5.13401 19 9C19 9.11351 18.9973 9.22639 18.992 9.33857C21.3265 10.16 23 12.3846 23 15C23 16.0883 22.7103 17.1089 22.2037 17.9889L20.7111 16.4955C20.8974 16.0335 21 15.5287 21 15C21 12.79 19.21 11 17 11C16.4711 11 15.9661 11.1027 15.5039 11.2892L14.0111 9.7964C14.8912 9.28978 15.9118 9 17 9C17 6.23858 14.7614 4 12 4C10.9295 4 9.93766 4.33639 9.12428 4.90922L7.69418 3.48056C8.88169 2.55284 10.3763 2 12 2Z"/></svg>

<svg xmlns="http://www.w3.org/2000/svg" viewBox="0 0 24 24" fill="currentColor">
    <g>
        <path fill="none" d="M0 0h24v24H0z"/>
        <path d="M3.515 2.1l19.092 19.092-1.415 1.415-2.014-2.015A5.985 5.985 0 0 1 17 21H7A6 6 0 0 1 5.008 9.339a6.992 6.992 0 0 1 .353-2.563L2.1 3.514 3.515 2.1zM7 9c0 .081.002.163.006.243l.07 1.488-1.404.494A4.002 4.002 0 0 0 7 19h10c.186 0 .369-.013.548-.037L7.03 8.445C7.01 8.627 7 8.812 7 9zm5-7a7 7 0 0 1 6.992 7.339 6.003 6.003 0 0 1 3.212 8.65l-1.493-1.493a3.999 3.999 0 0 0-5.207-5.206L14.01 9.795C14.891 9.29 15.911 9 17 9a5 5 0 0 0-7.876-4.09l-1.43-1.43A6.97 6.97 0 0 1 12 2z"/>
    </g>
</svg>
